X: 20
T:Brown Coffin
T:An Comhra Donn
M:4/4
L:1/8
R:H
Z:Andrew Pickering, 17/2/1999
K:D
FG|ABAG FAde|fgfe dcdA|BcdB AFDE|FE{A}ED E2 FG|
ABAG FAde|~f3e dedA|BcdB AFEG|F2 D2 D2:|
fg|agfd gfec|dcde fdAF|GABG FADF|Eg{a}gf e2 fg|agfd gfec|
dcde fdAF|GABG FAEG|F2 D2 D2:|

